cssgg/scan.svg

<svg
  width="24"
  height="24"
  viewBox="0 0 24 24"
  fill="none"
  xmlns="http://www.w3.org/2000/svg"
>
  <path d="M11 3H13V21H11V3Z" fill="currentColor" />
  <path
    d="M5 8C5 7.44771 5.44772 7 6 7H9V5H6C4.34315 5 3 6.34315 3 8V16C3 17.6569 4.34315 19 6 19H9V17H6C5.44772 17 5 16.5523 5 16V8Z"
    fill="currentColor"
  />
  <path
    d="M19 8C19 7.44771 18.5523 7 18 7H15V5H18C19.6569 5 21 6.34315 21 8V16C21 17.6569 19.6569 19 18 19H15V17H18C18.5523 17 19 16.5523 19 16V8Z"
    fill="currentColor"
  />
</svg>

<svg viewBox="0 0 24 24" xmlns="http://www.w3.org/2000/svg"><g><path d="M11 3h2v18h-2V3Z"/><path d="M5 8c0-.56.44-1 1-1h3V5H6C4.34 5 3 6.34 3 8v8c0 1.65 1.34 3 3 3h3v-2H6c-.56 0-1-.45-1-1V8Z"/><path d="M19 8c0-.56-.45-1-1-1h-3V5h3c1.65 0 3 1.34 3 3v8c0 1.65-1.35 3-3 3h-3v-2h3c.55 0 1-.45 1-1V8Z"/></g></svg>
